X:1
T:Title
%%score [ 1 2 ]
L:1/8
Q:1/4=150
M:4/4
K:C
V:1 treble nm="Soprano" snm="S"
V:2 bass nm="Bass" snm="B"
V:1
 z2 (GA) B3"^Now winter nights enlarge" c | d2 (gf) e3 g | ^f2 (g!courtesy!^f) (ed) e2 | %3
w: Now * win- ter|nights en\- * large The|num- ber * of * their|
w: This * time doth|well dis\- * pense With|lov- ers' * long * dis-|
 d4 z2 (e"^Thomas Campion\n(1575-1619)"d) |[M:4/4] c2 (dc) (Bc) A2 | G2 A2 (Bc) d2 | c2 (dc) B4 | %7
w: hours, And *|clouds their * storms * dis-|charge Up- on * the|air- y * towers.|
w: course; Much *|speech hath * some * de-|fence, Though beau\- * ty|no re\- * morse.|
 z2 (GA) B3 c | d2 (gf) e3 g | ^f2 (gf) (ed) e2 | d4 z2 (ed) | c2 (dc) (Bc) A2 | G2 A2 (Bc) d2 | %13
w: Let * now the|chim- neys * blaze, And|cups o'er\- * flow * with|wine: Let *|well- tun'd * words * a-|maze With har\- * mo-|
w: All * do not|all things * well: Some|mea- sures * come\- * ly|tread; Some *|knot- ted * rid\- * dles|tell; Some po\- * ems|
 c2 (dc) B4 |: z2 d2 (e^f) g2 | G2 A2 B3 c | d2 A2 c2 B2 | A4 z2 (cd) | e2 A2 d2 ^c2 | %19
w: ny di\- * vine.|Now yel\- * low|wax- en lights Shall|wait on ho- ney|love, While *|youth- ful re- vels,|
w: smooth- ly * read.|The sum\- * mer|hath his joys And|win- ter his de-|lights; Though *|love and all his|
 d2 f2 e2 e2 | d4 z2 (Bc) | d3 c (Bc) A2 | !fermata!G4 :| %23
w: masques, and court- ly|sights Sleep's *|lead- en spells * re-|move.|
w: plea- sures are but|toys, They *|short- en te\- * dious|nights.|
V:2
 z2 G,,2 G,4 | G,F, E,D, C,4 | D,2 G,,2 A,,4 | D,4 z2 C,2 |[M:4/4] A,,2 ^F,,2 G,,2 D,2 | %5
 E,2 (D,C,) B,,4 | A,,4 G,,4 | z2 G,,2 G,4 | G,F, E,D, C,4 | D,2 G,,2 A,,4 | D,4 z2 C,2 | %11
 A,,2 ^F,,2 G,,2 D,2 | E,2 D,C, B,,4 | A,,4 G,,4 |: z2 G,2 C,4 | G,2 D,2 G,2 E,2 | D,4 A,,2 E,2 | %17
 A,,4 z2 A,,2 | A,2 ^F,2 G,2 A,2 | D,4 A,2 A,,2 | D,6 E,2 | D,2 B,,2 C,2 D,2 | !fermata!G,,4 :| %23

